assets/svg/networks/wallet_xrp.svg

<svg width="36" height="36" viewBox="0 0 36 36" fill="none" xmlns="http://www.w3.org/2000/svg">
<g clip-path="url(#clip0_19002_45697)">
<rect width="36" height="36" rx="10" fill="#282F36"/>
<path d="M25.9538 9H29.205L22.4381 15.7016C21.255 16.8673 19.6609 17.5207 18 17.5207C16.3391 17.5207 14.745 16.8673 13.5619 15.7016L6.78937 9H10.0463L15.1875 14.0884C15.9362 14.8273 16.9458 15.2417 17.9978 15.2417C19.0497 15.2417 20.0593 14.8273 20.808 14.0884L25.9538 9ZM10.0069 27.6334H6.75L13.5619 20.8912C14.745 19.7256 16.3391 19.0722 18 19.0722C19.6609 19.0722 21.255 19.7256 22.4381 20.8912L29.25 27.6322H25.9931L20.8125 22.5C20.0638 21.761 19.0542 21.3467 18.0023 21.3467C16.9503 21.3467 15.9407 21.761 15.192 22.5L10.0058 27.6334H10.0069Z" fill="white"/>
</g>
<defs>
<clipPath id="clip0_19002_45697">
<rect width="36" height="36" fill="white"/>
</clipPath>
</defs>
</svg>

<svg xmlns="http://www.w3.org/2000/svg" width="36" height="36" fill="none"><g clip-path="url(#a)"><rect width="36" height="36" fill="#282F36" rx="10"/><path fill="#fff" d="M25.954 9h3.251l-6.767 6.702a6.323 6.323 0 0 1-8.876 0L6.789 9h3.257l5.142 5.088a4 4 0 0 0 5.62 0zM10.007 27.633H6.75l6.812-6.742a6.324 6.324 0 0 1 8.876 0l6.812 6.741h-3.257l-5.18-5.132a4 4 0 0 0-5.621 0l-5.186 5.133"/></g><defs><clipPath id="a"><path fill="#fff" d="M0 0h36v36H0z"/></clipPath></defs></svg>
